svgs/regular/podcast.svg

<svg xmlns="http://www.w3.org/2000/svg" viewBox="0 0 448 512"><!--! Font Awesome Pro 6.0.0-alpha3 by @fontawesome - https://fontawesome.com License - https://fontawesome.com/license (Commercial License) --><path d="M224 304c-34.19 0-66.56 8.969-66.56 45.5c0 34.45 13.39 108.5 21.45 138.2C184.2 507.4 204.4 512 224 512s39.78-4.551 45.11-24.31c8.061-29.9 21.45-103.9 21.45-138.2C290.6 312.1 258.2 304 224 304zM225.5 463.1C225.1 463.1 224.5 464 224 464c-.5449 0-1.062-.0059-1.551-.0156c-6.928-30.01-15.84-82.73-16.87-110.3C209.1 352.8 214.9 352 224 352c9.109 0 14.97 .8457 18.48 1.656C241.6 380.4 232.6 433.3 225.5 463.1zM224 288c35.38 0 64-28.62 64-64s-28.62-64-64-64S160 188.6 160 224S188.6 288 224 288zM224 208c8.822 0 16 7.178 16 16S232.8 240 224 240S208 232.8 208 224S215.2 208 224 208zM224 0C100.5 0 0 100.5 0 224c0 71.13 32.66 136.4 89.59 179.2C93.91 406.4 98.97 408 103.1 408c7.312 0 14.5-3.312 19.22-9.594c7.969-10.59 5.812-25.64-4.781-33.59C73.66 331.2 48 279.9 48 224c0-97.05 78.97-176 176-176s176 78.95 176 176c0 55.88-25.66 107.2-70.38 140.8c-10.59 7.969-12.75 23-4.781 33.61c7.969 10.55 23 12.8 33.59 4.766C415.3 360.4 448 295.1 448 224C448 100.5 347.5 0 224 0zM345.8 300.8C360.3 277.8 368 251.3 368 224c0-79.41-64.59-144-144-144S80 144.6 80 224c0 27.27 7.656 53.83 22.19 76.81C109.3 312 124.1 315.4 135.3 308.3s14.56-21.91 7.469-33.11C133.1 259.9 128 242.2 128 224c0-52.94 43.06-96 96-96s96 43.06 96 96c0 18.19-5.094 35.89-14.75 51.19c-7.094 11.2-3.75 26.03 7.469 33.11C316.7 310.8 321.1 312 325.5 312C333.5 312 341.3 308 345.8 300.8z"/></svg>

<svg xmlns="http://www.w3.org/2000/svg" viewBox="0 0 448 512"><!-- Font Awesome Pro 6.0.0-alpha2 by @fontawesome - https://fontawesome.com License - https://fontawesome.com/license (Commercial License) --><path d="M224 304C189.811 304 157.439 312.969 157.439 349.5C157.439 383.949 170.83 458.049 178.891 487.689C184.221 507.449 204.369 512 224 512S263.779 507.449 269.109 487.689C277.17 457.789 290.561 383.82 290.561 349.5C290.561 312.969 258.189 304 224 304ZM225.541 463.984C225.055 463.994 224.541 464 224 464C223.455 464 222.938 463.994 222.449 463.984C215.521 433.977 206.611 381.258 205.58 353.641C209.105 352.836 214.945 352 224 352C233.109 352 238.969 352.846 242.484 353.656C241.576 380.445 232.637 433.277 225.541 463.984ZM224 288C259.375 288 288 259.375 288 224S259.375 160 224 160S160 188.625 160 224S188.625 288 224 288ZM224 208C232.822 208 240 215.178 240 224S232.822 240 224 240S208 232.822 208 224S215.178 208 224 208ZM224 0C100.5 0 0 100.484 0 224C0 295.125 32.656 360.438 89.594 403.188C93.906 406.438 98.969 408 103.969 408C111.281 408 118.469 404.688 123.187 398.406C131.156 387.812 129 372.766 118.406 364.812C73.656 331.219 48 279.891 48 224C48 126.953 126.969 48 224 48S400 126.953 400 224C400 279.875 374.344 331.203 329.625 364.812C319.031 372.781 316.875 387.812 324.844 398.422C332.812 408.969 347.844 411.219 358.437 403.188C415.344 360.438 448 295.125 448 224C448 100.484 347.5 0 224 0ZM345.812 300.812C360.344 277.828 368 251.266 368 224C368 144.594 303.406 80 224 80S80 144.594 80 224C80 251.266 87.656 277.828 102.188 300.812C109.281 312 124.062 315.375 135.281 308.297S149.844 286.391 142.75 275.187C133.094 259.891 128 242.188 128 224C128 171.062 171.062 128 224 128S320 171.062 320 224C320 242.188 314.906 259.891 305.25 275.188C298.156 286.391 301.5 301.219 312.719 308.297C316.688 310.812 321.125 312 325.5 312C333.469 312 341.25 308.047 345.812 300.812Z"/></svg>
